src/parts/clothes/BlazerShirt.svg

<svg>
  <g
    id="Clothing/Blazer-+-Shirt"
    transform="translate(0.000000, 170.000000)"
  >
    <defs>
      <path
        id="BlazerShirt-path1"
        d="M133.960472,0.294916112 C170.936473,3.32499816 200,34.2942856 200,72.0517235 L200,81 L0,81 L0,72.0517235 C1.22536245e-14,33.9525631 29.591985,2.76498122 67.0454063,0.219526408 C67.0152598,0.593114549 67,0.969227185 67,1.34762511 C67,13.2107177 81.9984609,22.8276544 100.5,22.8276544 C119.001539,22.8276544 134,13.2107177 134,1.34762511 C134,0.994669088 133.986723,0.64370138 133.960472,0.294916112 Z"
      />
    </defs>

    <g
      id="Shirt"
      transform="translate(32.000000, 29.000000)"
    >
      <mask
        id="BlazerShirt-mask1"
        fill="white"
      >
        <use href="#BlazerShirt-path1" />
      </mask>

      <use
        class="CustomColor"
        fill="#E6E6E6"
        href="#BlazerShirt-path1"
      />

      <g
        id="Color/Palette/Black"
        mask="url('#BlazerShirt-mask1')"
        fill="#262E33"
      >
        <g
          id="Color"
          transform="translate(-32.000000, -29.000000)"
        >
          <rect
            x="0"
            y="0"
            width="264"
            height="110"
          />
        </g>
      </g>

      <g
        id="Shadowy"
        opacity="0.16"
        mask="url('#BlazerShirt-mask1')"
        fill="#000000"
      >
        <g
          id="Hola"
          transform="translate(60.000000, -25.000000)"
        >
          <ellipse
            cx="40.5"
            cy="27.8476251"
            rx="39.6351047"
            ry="26.9138272"
          />
        </g>
      </g>
    </g>

    <g
      id="Blazer"
      transform="translate(32.000000, 28.000000)"
    >
      <path
        id="Saco"
        d="M68.784807,1.12222847 C30.512317,2.80409739 -1.89486556e-14,34.3646437 -1.42108547e-14,73.0517235 L0,73.0517235 L0,82 L69.3616767,82 C65.9607412,69.9199941 64,55.7087296 64,40.5 C64,26.1729736 65.7399891,12.7311115 68.784807,1.12222847 Z M131.638323,82 L200,82 L200,73.0517235 C200,34.7067641 170.024954,3.36285166 132.228719,1.17384225 C135.265163,12.7709464 137,26.1942016 137,40.5 C137,55.7087296 135.039259,69.9199941 131.638323,82 Z"
        fill="#3A4C5A"
      />
      <path
        id="Pocket-hanky"
        d="M149,58 L158.555853,50.83311 L158.555853,50.83311 C159.998897,49.7508275 161.987779,49.7682725 163.411616,50.8757011 L170,56 L149,58 Z"
        fill="#E6E6E6"
      />
      <path
        id="Wing"
        d="M69,1.13686838e-13 C65,19.3333333 66.6666667,46.6666667 74,82 L58,82 L44,46 L50,37 L44,31 L63,1 C65.027659,0.369238637 67.027659,0.0359053037 69,1.13686838e-13 Z"
        fill="#2F4351"
      />
      <path
        id="Wing"
        d="M151,1.13686838e-13 C147,19.3333333 148.666667,46.6666667 156,82 L140,82 L126,46 L132,37 L126,31 L145,1 C147.027659,0.369238637 149.027659,0.0359053037 151,1.13686838e-13 Z"
        fill="#2F4351"
        transform="translate(141.000000, 41.000000) scale(-1, 1) translate(-141.000000, -41.000000) "
      />
    </g>
  </g>
</svg>

<svg>
  <g id="Clothing/Blazer-+-Shirt" transform="translate(0 170)">
    <defs>
      <path id="BlazerShirt-path1" d="M133.96.295c36.976 3.03 66.04 34 66.04 71.757V81H0v-8.948C0 33.952 29.592 2.765 67.045.22 67.015.593 67 .97 67 1.348c0 11.863 14.998 21.48 33.5 21.48 18.502 0 33.5-9.617 33.5-21.48 0-.353-.013-.704-.04-1.053Z"/>
    </defs>
    <g id="Shirt" transform="translate(32 29)">
      <mask id="BlazerShirt-mask1" fill="#fff">
        <use href="#BlazerShirt-path1"/>
      </mask>
      <use fill="#E6E6E6" class="CustomColor" href="#BlazerShirt-path1"/>
      <g id="Color/Palette/Black" fill="#262E33" mask="url('#BlazerShirt-mask1')">
        <path id="Color" d="M0 0h264v110H0z" transform="translate(-32 -29)"/>
      </g>
      <g id="Shadowy" fill="#000" mask="url('#BlazerShirt-mask1')" opacity=".16">
        <ellipse id="Hola" cx="40.5" cy="27.848" rx="39.635" ry="26.914" transform="translate(60 -25)"/>
      </g>
    </g>
    <g id="Blazer" transform="translate(32 28)">
      <path id="Saco" fill="#3A4C5A" d="M68.785 1.122C30.512 2.804 0 34.365 0 73.052V82h69.362C65.96 69.92 64 55.709 64 40.5c0-14.327 1.74-27.769 4.785-39.378ZM131.638 82H200v-8.948c0-38.345-29.975-69.69-67.771-71.878C135.265 12.77 137 26.194 137 40.5c0 15.209-1.96 29.42-5.362 41.5Z"/>
      <path id="Pocket-hanky" fill="#E6E6E6" d="m149 58 9.556-7.167a4 4 0 0 1 4.856.043L170 56l-21 2Z"/>
      <path id="Wing" fill="#2F4351" d="M69 0c-4 19.333-2.333 46.667 5 82H58L44 46l6-9-6-6L63 1c2.028-.63 4.028-.964 6-1Z"/>
      <path id="Wing" fill="#2F4351" d="M151 0c-4 19.333-2.333 46.667 5 82h-16l-14-36 6-9-6-6 19-30c2.028-.63 4.028-.964 6-1Z" transform="matrix(-1 0 0 1 282 0)"/>
    </g>
  </g>
</svg>
